web/workspace/public/assets/icons/white/photo.svg

<svg height="30" viewBox="0 0 30 30" width="30" xmlns="http://www.w3.org/2000/svg"><path d="m2 2v26h26v-26zm24 24h-22v-4h22zm0-6h-22v-16h22zm-18-10a2 2 0 1 0 -.001-4.001 2 2 0 0 0 .001 4.001zm10-3-5 5-2-1-5 7h18zm-6.365 6.553 1.76.881 4.129-4.129 3.107 5.695h-10.744z" fill="#fff"/></svg>

<svg xmlns="http://www.w3.org/2000/svg" width="30" height="30" viewBox="0 0 30 30"><path d="M2 2v26h26V2H2zm24 24H4v-4h22v4zm0-6H4V4h22v16zM8 10a2 2 0 1 0-.001-4.001A2 2 0 0 0 8 10zm10-3l-5 5-2-1-5 7h18L18 7zm-6.365 6.553l1.76.881 4.129-4.129L20.631 16H9.887l1.748-2.447z" fill="#fff"/></svg>
